X: 1
T: Gammal Polska frn Fllinge, Jmtland
Z: 2000 John Chambers <jc@trillian.mit.edu>
N: Handwritten MS
R: polska
M: 9/16
L: 1/16
K: Dm
|: "Dm"a(ba) g(ag) f2e | "A7"gag fgf e2^c \\
|1,3 "Dm"d2e fg2 a2f | ded "A7"^cec A2 :|2,4 "Dm"d2e fg2 a2d | "A7"^cec d6 :|
|:  F2A E^C2 D2E | FAF E3 D3 |1,3 A2^c d2e f2e \\
| ded ^cec A3 :|2,4 A2^c d2e f2d | ^cec d6 :|
|: A2a2g2 f2A | A2g2f2 e2^c \\
|1,3 "Dm"d2e fg2 a2f | ded "A7"^cec A2 :|2,4 "Dm"d2e fg2 a2f | "A7"^cec d6 :|
